X:1
T:Title
%%score { 1 | 2 }
L:1/8
M:2/2
K:A
V:1 treble nm="Grand Piano"
V:2 bass 
V:1
 z4 z2[Q:1/4=112] [CE]2 | [CA]2 [CA]2 [CG]2 [CG]2 | [CF]2 [CF]2 [A,C]2 [B,D]2 | %3
 [CE]2 [CE]2 [DE]3 [DE] |[M:3/4] [CE]6 |[M:1/4] [CE]2 |[M:4/4] [DF]2 [DF]2 [DG]2 E2 | A2 A2 B2 c2 | %8
 B2 B2 B3 F |[M:3/4] B6 |[M:1/4] B2 |[M:4/4] c2 c2 B2 B2 | A2 A2 E2 E2 | F2 F2 [C=G]3 [CG] | %14
[M:3/4] [DF]6 |[M:1/4] [DF]2 |[M:4/4] [Fd]2 [Fd]2 [Ec]2 [Ec]2 | B2 B2 F2 A2 | A2 G2 B3 [CA] | %19
[M:3/4] [CA]6 |[M:1/4] [CE]2 |[M:4/4] [Ec]2 [Ac]2 [Gc]2 [Fc]2 | [Ec]2 [CA]2 [=CG]2 [CF]2 | %23
 [CF]2 [CE]2 [CE]3 [CE] |[M:3/4] [CE]6 |[M:1/4] [CE]2 |[M:4/4] [DF]2 [Fd]2 [Gd]2 [Fd]2 | %27
 [Fd]2 [Ec]2 [DB]2 [DF]2 | A2 G2 B E3 |[M:3/4] [CA]6 |] %30
V:2
 z4 z2 [A,,E,]2 | [A,,E,]2 [A,,E,]2 [A,,E,]2 [A,,E,]2 | [A,,A,]2 [A,,A,]2 [A,,E,]2 [A,,E,]2 | %3
 [A,,A,]2 [A,,A,]2 [E,G,]3 [E,G,] |[M:3/4] [A,,A,]6 |[M:1/4] [A,,A,]2 | %6
[M:4/4] [D,A,]2 [D,A,]2 [B,,B,]2 [E,G,D]2 | [F,C]2 [F,C]2 [E,G,E]2 [A,E]2 | %8
 [G,B,E]2 [G,B,E]2 [F,A,^D]3 [F,A,D] |[M:3/4] [E,G,E]6 |[M:1/4] [E,G,E]2 | %11
[M:4/4] [A,E]2 [A,E]2 [E,G,D]2 [E,G,D]2 | [F,C]2 [F,C]2 [C,A,]2 [C,A,]2 | %13
 [D,A,D]2 [D,A,D]2 [A,,A,]3 [A,,A,] |[M:3/4] [D,A,]6 |[M:1/4] [D,A,]2 | %16
[M:4/4] [B,,B,]2 [B,,B,]2 [C,^A,]2 [C,A,]2 | [D,F,D]2 [D,F,D]2 [D,B,D]2 [D,F,D]2 | %18
 [E,C]2 [E,B,]2 [E,G,D]3 [A,,A,] |[M:3/4] [A,,A,]6 |[M:1/4] [A,,A,]2 | %21
[M:4/4] [A,,A,]2 [A,,A,]2 [A,,E,]2 [A,,A,]2 | [A,,A,]2 [A,,E,]2 [A,,^D,]2 [A,,F,]2 | %23
 [A,,A,]2 [A,,A,]2 [A,,A,]3 [A,,A,] |[M:3/4] [A,,A,]6 |[M:1/4] [A,,A,]2 | %26
[M:4/4] [D,A,]2 [D,A,]2 [D,B,]2 [D,A,]2 | [B,,B,]2 [C,^A,]2 [D,B,]2 [B,,B,]2 | %28
 [E,CE]2 [E,B,D]2 [E,G,D] [E,G,D]3 |[M:3/4] [A,,A,]6 |] %30

